X:118
T:Tomorrow is St. Valentine's Day
M:6/8
L:1/8
K:A
%%score 1 2
V:1 clef-treble
V:2 clef-bass octave=-1
V:1
A|(ce)d (cB)A|E2cE2A|(ce)d cBA|
w:Good mor-*row, 'tis* St. Valent-ine's day, All in* the morn-ing be
V:2
z|[A,E]6|[CA]6|[A,E]3[CA]3|
V:1
B3-B2B|(ce)d (cB)A|E2CE2E|(AB)c cB2&x3[EG]3|[EA]3-[EA]2||
w:time,* And I* a maid* at your window,* To be* your Valen-*tine.*
V:2
(A3G2)z&E3-E2x|[A,E]6|[CA]6|[Ec]3[Ed]3|[Ac]3-[Ac]2||

